!!!OTL: Abschied
!!!ARE: Europa, Mitteleuropa, Deutschland
!!!SCT: A0257
!!!YEM: Copyright 1995, estate of Helmut Schaffrath.
**kern
*ICvox
*Ivox
!! Mixed meters:  4/2; 6/2
*M6/2
*k[]
*C:
{2c
=1
2c
2c
2c
2c
=2
1B
1G}
=3
{1d
=4
1e
2d
1c
4B
4A
=5
*M4/2
2B
2c
1A
=6
1.G}
{2c
=7
2c
2c
2c
2c
=8
1B
1G}
=9
{1d
=10
*M6/2
1e
2d
1c
4B
4A
=11
*M4/2
2B
2c
1A
=12
1.G}
{2g
=13
2f
2e
2d
2c
=14
1.f
4e
4d
=15
*M6/2
1e
1d
2r}
{2d
=16
*M4/2
1g
2f
2e
=17
4f
4d
1d
2c
=18
1d
2r}
{2G
=19
2c
2d
2e
2f
=20
1g
1d}
=21
{1f
=22
*M6/2
1e
2d
1g
4f
4e
=23
*M4/2
2f
2e
1d
=24
1.c}
==
!!!AGN: Romanze, Ballade, Lied
!! Gassenhawerlein 1535 No. 1.
!!!ONB: ESAC (Essen Associative Code) Database: ALTDEU
!!!AMT: irregular
!!!AIN: vox
!!!EED: Helmut Schaffrath
!!!EEV: 1.0
*-
